X: 6
T: Palmer's Gate
R: reel
M: 4/4
L: 1/8
K: Amaj
|:cFFF ABcA|BecA BAFG|A3B c3A|cfec B2 AB|
cFFF ABcA|B3A BAFG|ABce fecA|FAGE F2 AB:||
|:cffe f3g|a2 ga fecB|A3c eAcA|cefe f3e|
cffe f3g|aa ga fecB|ABce fecA|FAGE F3 A:||


Tune 1020	Setting 14242

